cssgg/website.svg

<svg
  width="24"
  height="24"
  viewBox="0 0 24 24"
  fill="none"
  xmlns="http://www.w3.org/2000/svg"
>
  <path
    fill-rule="evenodd"
    clip-rule="evenodd"
    d="M14 7C13.4477 7 13 7.44772 13 8V16C13 16.5523 13.4477 17 14 17H18C18.5523 17 19 16.5523 19 16V8C19 7.44772 18.5523 7 18 7H14ZM17 9H15V15H17V9Z"
    fill="currentColor"
  />
  <path
    d="M6 7C5.44772 7 5 7.44772 5 8C5 8.55228 5.44772 9 6 9H10C10.5523 9 11 8.55228 11 8C11 7.44772 10.5523 7 10 7H6Z"
    fill="currentColor"
  />
  <path
    d="M6 11C5.44772 11 5 11.4477 5 12C5 12.5523 5.44772 13 6 13H10C10.5523 13 11 12.5523 11 12C11 11.4477 10.5523 11 10 11H6Z"
    fill="currentColor"
  />
  <path
    d="M5 16C5 15.4477 5.44772 15 6 15H10C10.5523 15 11 15.4477 11 16C11 16.5523 10.5523 17 10 17H6C5.44772 17 5 16.5523 5 16Z"
    fill="currentColor"
  />
  <path
    fill-rule="evenodd"
    clip-rule="evenodd"
    d="M4 3C2.34315 3 1 4.34315 1 6V18C1 19.6569 2.34315 21 4 21H20C21.6569 21 23 19.6569 23 18V6C23 4.34315 21.6569 3 20 3H4ZM20 5H4C3.44772 5 3 5.44772 3 6V18C3 18.5523 3.44772 19 4 19H20C20.5523 19 21 18.5523 21 18V6C21 5.44772 20.5523 5 20 5Z"
    fill="currentColor"
  />
</svg>

<svg viewBox="0 0 24 24" xmlns="http://www.w3.org/2000/svg"><path fill-rule="evenodd" d="M14 7c-.56 0-1 .44-1 1v8c0 .55.44 1 1 1h4c.55 0 1-.45 1-1V8c0-.56-.45-1-1-1h-4Zm3 2h-2v6h2V9Z"/><g><path d="M6 7c-.56 0-1 .44-1 1 0 .55.44 1 1 1h4c.55 0 1-.45 1-1 0-.56-.45-1-1-1H6Z"/><path d="M6 11c-.56 0-1 .44-1 1 0 .55.44 1 1 1h4c.55 0 1-.45 1-1 0-.56-.45-1-1-1H6Z"/><path d="M5 16c0-.56.44-1 1-1h4c.55 0 1 .44 1 1 0 .55-.45 1-1 1H6c-.56 0-1-.45-1-1Z"/><path fill-rule="evenodd" d="M4 3C2.34 3 1 4.34 1 6v12c0 1.65 1.34 3 3 3h16c1.65 0 3-1.35 3-3V6c0-1.66-1.35-3-3-3H4Zm16 2H4c-.56 0-1 .44-1 1v12c0 .55.44 1 1 1h16c.55 0 1-.45 1-1V6c0-.56-.45-1-1-1Z"/></g></svg>
